humanity-icon-theme/Humanity/apps/16/preferences-desktop-locale.svg

<?xml version="1.0" encoding="UTF-8" standalone="no"?>
<!-- Created with Inkscape (http://www.inkscape.org/) -->

<svg
   xmlns:svg="http://www.w3.org/2000/svg"
   xmlns="http://www.w3.org/2000/svg"
   xmlns:xlink="http://www.w3.org/1999/xlink"
   version="1.1"
   width="16"
   height="16"
   id="svg4289">
  <defs
     id="defs4291">
    <linearGradient
       id="linearGradient4120">
      <stop
         id="stop4122"
         style="stop-color:white;stop-opacity:1"
         offset="0" />
      <stop
         id="stop4124"
         style="stop-color:white;stop-opacity:0.23529412"
         offset="1" />
    </linearGradient>
    <linearGradient
       id="linearGradient3927">
      <stop
         id="stop3929"
         style="stop-color:#8badea;stop-opacity:1"
         offset="0" />
      <stop
         id="stop3931"
         style="stop-color:#6396cd;stop-opacity:1"
         offset="0.34314865" />
      <stop
         id="stop3933"
         style="stop-color:#3b7caf;stop-opacity:1"
         offset="0.69597507" />
      <stop
         id="stop3935"
         style="stop-color:#206494;stop-opacity:1"
         offset="1" />
    </linearGradient>
    <linearGradient
       x1="-2.8531663"
       y1="19.599176"
       x2="28.05953"
       y2="19.599176"
       id="linearGradient2871"
       xlink:href="#linearGradient3927"
       gradientUnits="userSpaceOnUse"
       gradientTransform="matrix(0.44206193,0,0,0.48765475,-2.4036494,-1.6661366)"
       spreadMethod="pad" />
    <linearGradient
       id="linearGradient4873">
      <stop
         id="stop4875"
         style="stop-color:white;stop-opacity:1"
         offset="0" />
      <stop
         id="stop4877"
         style="stop-color:white;stop-opacity:0"
         offset="1" />
    </linearGradient>
    <linearGradient
       id="linearGradient2490-182-124">
      <stop
         id="stop2788"
         style="stop-color:#1f4a69;stop-opacity:1"
         offset="0" />
      <stop
         id="stop2790"
         style="stop-color:#4083c2;stop-opacity:1"
         offset="1" />
    </linearGradient>
    <linearGradient
       x1="30"
       y1="30"
       x2="-11"
       y2="30"
       id="linearGradient3943"
       xlink:href="#linearGradient2490-182-124"
       gradientUnits="userSpaceOnUse"
       gradientTransform="matrix(0.33330063,0,0,0.36517147,0.00138137,-0.87262061)"
       spreadMethod="pad" />
    <linearGradient
       x1="0.84580046"
       y1="8.3324795"
       x2="17.091202"
       y2="29.381323"
       id="linearGradient4007"
       xlink:href="#linearGradient4873"
       gradientUnits="userSpaceOnUse"
       gradientTransform="matrix(0.30232242,0,0,0.32335504,0.74429548,0.08065086)" />
    <linearGradient
       x1="6.0052142"
       y1="12.517409"
       x2="18.981974"
       y2="12.517409"
       id="linearGradient4019"
       xlink:href="#linearGradient4120"
       gradientUnits="userSpaceOnUse"
       gradientTransform="matrix(0.69402363,0,0,0.62529439,-0.16822101,0.5980267)" />
  </defs>
  <path
     d="M 0.50133223,3.0251963 C 0.4866023,2.4506904 2.7377194,1.4144754 5.0441302,1.5056385 7.3504553,1.5967971 7.9662027,2.4759046 10.579517,2.5965087 13.000106,2.7082166 15.51459,2.2272701 15.49986,2.8126109 l 0,10.3125861 c 0.02083,0.773697 -2.280784,1.530391 -4.894717,1.52197 C 7.991222,14.638729 7.5056981,13.600778 5.0441302,13.551652 2.583959,13.502561 0.43883844,14.084651 0.50133223,13.003563 l 0,-9.9783667 z"
     id="path4319"
     style="fill:url(#linearGradient2871);fill-opacity:1;fill-rule:evenodd;stroke:url(#linearGradient3943);stroke-width:0.99999982;stroke-linecap:butt;stroke-linejoin:round;stroke-miterlimit:4;stroke-opacity:1;stroke-dasharray:none" />
  <path
     d="M 1.5001018,3.3441562 C 1.4836068,2.9908406 3.4730366,2.4168243 5.4717548,2.5101067 7.4625795,2.6030149 7.9942796,3.3914119 10.251395,3.4758787 12.533496,3.5612761 14,3.9300001 14.499964,3.5098001 l 0,9.2082809 c -0.0051,0.296773 -1.967334,0.790593 -4.226441,0.781804 C 8.0164867,13.491085 7.5970905,12.51805 5.4717548,12.469594 3.3474701,12.421172 2,12.565 1.5001018,12.5672 l 0,-9.2230438 z"
     id="path5213"
     style="opacity:0.3;fill:none;stroke:url(#linearGradient4007);stroke-width:1;stroke-linecap:butt;stroke-linejoin:miter;stroke-miterlimit:4;stroke-opacity:1;stroke-dasharray:none" />
  <path
     d="M 8.0082448,5.0141684 C 7.4044353,5.0964029 6.8339021,5.3584186 6.38717,5.7327262 5.9749191,6.0747794 5.6883146,6.5312538 5.5140974,7.0072942 5.3683645,7.5249282 5.3017765,8.0941257 5.5412064,8.597884 c 0.1473919,0.3533484 0.3426199,0.6910391 0.60185,0.9887491 0.00497,0.1260682 -0.1862123,0.1612371 -0.1735059,0.2931066 0.1904918,-0.1419556 0.5408827,-0.078391 0.6289589,0.1367833 0.6167184,0.418009 1.3610622,0.666464 2.1197266,0.784495 0.6484498,0.05042 1.337435,-0.0666 1.892597,-0.393686 0.570888,-0.327099 0.878452,-0.9127997 0.976979,-1.499836 C 11.708773,8.331745 11.581214,7.7352657 11.313343,7.2075125 10.990732,6.5978691 10.607886,5.9765409 9.9866654,5.573543 9.4384048,5.2067663 8.7482712,4.9482593 8.0558583,5.0088064 l -0.047613,0.0054 z M 4.7983856,5.6003822 C 4.2886171,6.0226246 4.173435,6.6929713 4.0392972,7.2808605 c -0.076277,0.5341369 -0.043802,1.0774466 0.117524,1.5959693 0.1604425,0.5665955 0.4623504,1.0942301 0.8367586,1.5695832 0.442891,0.460222 0.9425802,0.890612 1.5904978,1.102093 0.4462567,0.196097 0.9725272,0.369085 1.4675438,0.246198 C 8.2913267,11.570312 8.0233184,11.23824 7.7262978,11.208491 7.1180562,11.095654 6.5378722,10.856834 6.0467277,10.508806 5.5645619,10.12324 5.1643745,9.6307488 4.9285338,9.0883982 4.7081217,8.5481834 4.6466249,7.9694321 4.7116326,7.3981035 4.7570047,6.9304748 4.9370457,6.4949757 5.1887739,6.0888936 5.2676112,5.9209691 5.2692968,5.68263 5.0369563,5.6199219 4.9687835,5.5761149 4.8730096,5.5635 4.7983856,5.6003822 z m 3.5134946,0.058618 C 8.9213315,5.7083755 9.5306274,5.9166725 9.9384981,6.3429158 10.222956,6.7444279 10.62005,7.0955847 10.740963,7.5739635 10.372263,7.183155 10.003563,6.7923456 9.6348628,6.4015373 9.6999268,6.6685898 9.7649922,6.9356424 9.8300569,7.2026949 9.4029749,6.7653518 8.8961051,6.20191 8.1673241,6.3213718 7.6278179,6.3952236 7.1115171,6.7085836 6.9238329,7.1831585 6.890617,7.4801103 6.5831327,7.6336853 6.3165623,7.7498312 6.7011709,7.8182902 6.8616138,8.1682475 6.9455212,8.4728276 6.8127669,8.338777 6.7490742,8.5893083 6.7069506,8.6682327 6.6346564,8.7854756 6.5623623,8.9027176 6.4900681,9.0199606 6.1689333,8.5627239 6.0254576,7.9945645 6.0996799,7.456725 6.2301038,6.8732908 6.5826222,6.3233997 7.1407153,5.9911905 7.4789803,5.7778286 7.8920647,5.6271034 8.3118802,5.6590035 z m 3.7737528,0.332187 c -0.400596,0.1852319 -0.211811,0.6588854 -0.06506,0.9379423 0.217961,0.5596196 0.385309,1.1552615 0.305863,1.7520979 -0.03899,0.5057917 -0.189832,1.0146364 -0.479369,1.4525346 -0.336789,0.405807 -0.703575,0.83718 -1.236581,1.035833 -0.513576,0.288372 -1.1439497,0.180569 -1.6952842,0.340609 -0.1069511,-1.58e-4 -0.014151,0.132602 -0.03942,0.186793 -0.0052,0.238578 0.2636477,0.355434 0.4947965,0.280485 0.6627277,-0.03733 1.3257807,-0.177476 1.8880327,-0.500215 0.602785,-0.375589 1.072888,-0.929583 1.365794,-1.5320895 C 12.849945,9.4123306 12.947417,8.8436404 12.996546,8.27742 13.025136,7.6924364 12.873567,7.1129934 12.644112,6.5695881 12.522711,6.3557034 12.430199,6.010317 12.129011,5.9716472 l -0.04338,0.019536 z M 8.5504508,6.9486688 C 8.9613378,7.058953 9.3255524,7.3855281 9.3312274,7.788908 9.4482585,8.0314514 9.6789506,8.3243918 9.4479942,8.575065 9.1722529,9.0449106 8.425757,9.0104068 8.0328098,8.6829836 7.9248025,8.6332831 7.8375337,8.5627867 7.7696742,8.4728276 8.0213064,8.5566148 7.9623227,8.2334352 7.9648684,8.1044938 c 0,-0.1182203 0,-0.2364414 0,-0.3546626 -0.1662762,0 -0.3325533,0 -0.4988295,0 0.1381739,-0.4229177 0.5186959,-0.927391 1.0844119,-0.8011586 z m 2.3206422,1.074725 c 0.122763,0.5097927 0.0975,1.1040301 -0.281948,1.5241557 0,-0.2605407 0,-0.5210789 0,-0.7816185 C 10.473474,8.6486882 10.357804,8.5314452 10.242133,8.4142033 10.408327,8.2114439 10.672546,8.101724 10.849404,7.9061509 l 0.02086,0.1127531 8.34e-4,0.00453 z M 8.0733096,9.410766 C 8.400584,9.5259895 8.74435,9.5821426 9.0926568,9.5475495 9.3818336,9.7168996 9.6710096,9.8862506 9.9601863,10.055602 9.3462003,10.196292 8.6878605,10.289103 8.0842051,10.055617 7.695996,9.9275007 7.3499155,9.7173642 7.0105859,9.5084685 7.2203913,9.3218515 7.6078113,9.1869004 7.8798303,9.3111542 l 0.1101562,0.056717 0.083323,0.042892 z"
     id="path5577-5"
     style="font-size:medium;font-style:normal;font-variant:normal;font-weight:normal;font-stretch:normal;text-indent:0;text-align:start;text-decoration:none;line-height:normal;letter-spacing:normal;word-spacing:normal;text-transform:none;direction:ltr;block-progression:tb;writing-mode:lr-tb;text-anchor:start;color:black;fill:url(#linearGradient4019);fill-opacity:1;stroke:none;stroke-width:2.03124976;marker:none;visibility:visible;display:inline;overflow:visible;enable-background:accumulate;font-family:Andale Mono;-inkscape-font-specification:Andale Mono" />
</svg>

<?xml version="1.0" encoding="UTF-8" standalone="no"?>
<!-- Created with Inkscape (http://www.inkscape.org/) -->
<svg id="svg4289" xmlns="http://www.w3.org/2000/svg" height="16" width="16" version="1.1" xmlns:xlink="http://www.w3.org/1999/xlink">
 <defs id="defs4291">
  <linearGradient id="linearGradient2871" y2="19.599" gradientUnits="userSpaceOnUse" x2="28.06" gradientTransform="matrix(.44206 0 0 .48765 -2.4036 -1.6661)" y1="19.599" x1="-2.8532">
   <stop id="stop3929" style="stop-color:#8badea" offset="0"/>
   <stop id="stop3931" style="stop-color:#6396cd" offset=".34315"/>
   <stop id="stop3933" style="stop-color:#3b7caf" offset=".69598"/>
   <stop id="stop3935" style="stop-color:#206494" offset="1"/>
  </linearGradient>
  <linearGradient id="linearGradient3943" y2="30" gradientUnits="userSpaceOnUse" x2="-11" gradientTransform="matrix(.33330 0 0 .36517 .0013814 -.87262)" y1="30" x1="30">
   <stop id="stop2788" style="stop-color:#1f4a69" offset="0"/>
   <stop id="stop2790" style="stop-color:#4083c2" offset="1"/>
  </linearGradient>
  <linearGradient id="linearGradient4007" y2="29.381" gradientUnits="userSpaceOnUse" x2="17.091" gradientTransform="matrix(.30232 0 0 .32336 .74430 .080651)" y1="8.3325" x1=".84580">
   <stop id="stop4875" style="stop-color:#fff" offset="0"/>
   <stop id="stop4877" style="stop-color:#fff;stop-opacity:0" offset="1"/>
  </linearGradient>
  <linearGradient id="linearGradient4019" y2="12.517" gradientUnits="userSpaceOnUse" x2="18.982" gradientTransform="matrix(.69402 0 0 .62529 -.16822 .59803)" y1="12.517" x1="6.0052">
   <stop id="stop4122" style="stop-color:#fff" offset="0"/>
   <stop id="stop4124" style="stop-color:#fff;stop-opacity:.23529" offset="1"/>
  </linearGradient>
 </defs>
 <path id="path4319" style="stroke-linejoin:round;fill-rule:evenodd;stroke:url(#linearGradient3943);fill:url(#linearGradient2871)" d="m0.50133 3.0252c-0.01473-0.5745 2.2364-1.6107 4.5428-1.5196 2.3064 0.0912 2.9221 0.9703 5.5359 1.0909 2.42 0.1117 4.935-0.3692 4.92 0.2161v10.313c0.02083 0.7737-2.2808 1.5304-4.8947 1.522-2.6138-0.009-3.0993-1.047-5.5609-1.096-2.4601-0.049-4.6053 0.533-4.5428-0.548v-9.9784z"/>
 <path id="path5213" style="opacity:.3;stroke:url(#linearGradient4007);fill:none" d="m1.5001 3.3442c-0.0165-0.3534 1.9729-0.9274 3.9717-0.8341 1.9908 0.0929 2.5225 0.8813 4.7792 0.9658 2.282 0.0854 3.749 0.4541 4.249 0.0339v9.2083c-0.0051 0.29677-1.9673 0.79059-4.2264 0.7818-2.2575-0.009-2.6769-0.982-4.8022-1.03-2.1243-0.049-3.4718 0.095-3.9717 0.097v-9.223z"/>
 <path id="path5577-5" style="block-progression:tb;text-indent:0;color:black;text-transform:none;fill:url(#linearGradient4019)" d="m8.0082 5.0142c-0.6038 0.0822-1.1743 0.3442-1.621 0.7185-0.4123 0.3421-0.6989 0.7986-0.8731 1.2746-0.1457 0.5176-0.2123 1.0868 0.0271 1.5906 0.14739 0.35335 0.34262 0.69104 0.60185 0.98875 0.00497 0.12607-0.18621 0.16124-0.17351 0.29311 0.19049-0.14196 0.54088-0.078391 0.62896 0.13678 0.61672 0.41801 1.3611 0.66646 2.1197 0.7845 0.64845 0.05042 1.3374-0.0666 1.8926-0.39369 0.57089-0.3271 0.87845-0.9128 0.97698-1.4998 0.121-0.5759-0.007-1.1723-0.275-1.7001-0.322-0.6096-0.705-1.231-1.3263-1.634-0.5483-0.3667-1.2384-0.6252-1.9308-0.5647l-0.047613 0.0054zm-3.2098 0.5862c-0.5098 0.4222-0.625 1.0926-0.7591 1.6805-0.076277 0.53414-0.043802 1.0774 0.11752 1.596 0.16044 0.5666 0.46235 1.0942 0.83676 1.5696 0.44289 0.46022 0.94258 0.89061 1.5905 1.1021 0.44626 0.1961 0.97253 0.36908 1.4675 0.2462 0.2397-0.225-0.0283-0.557-0.3253-0.587-0.6082-0.112-1.1884-0.351-1.6796-0.699-0.4821-0.386-0.8823-0.8783-1.1182-1.4206-0.2204-0.5402-0.2819-1.119-0.2169-1.6903 0.0454-0.4676 0.2254-0.9031 0.4772-1.3092 0.0788-0.1679 0.0805-0.4063-0.1518-0.469-0.0682-0.0438-0.164-0.0564-0.2386-0.0195zm3.5135 0.058618c0.6094 0.0494 1.2187 0.2577 1.6266 0.6839 0.2845 0.4015 0.6815 0.7527 0.8025 1.2311-0.369-0.3908-0.737-0.7817-1.1061-1.1725 0.065 0.2671 0.1301 0.5341 0.1952 0.8012-0.4271-0.4373-0.934-1.0008-1.6628-0.8813-0.5395 0.0738-1.0558 0.3872-1.2435 0.8618-0.0332 0.2969-0.3407 0.4505-0.6072 0.5666 0.3846 0.0685 0.545 0.4184 0.6289 0.723-0.1327-0.134-0.1964 0.1165-0.2385 0.1954-0.0723 0.1173-0.1446 0.2345-0.2169 0.3518-0.3212-0.4573-0.4646-1.0254-0.3904-1.5633 0.1304-0.5834 0.4829-1.1333 1.041-1.4655 0.3383-0.2134 0.7514-0.3641 1.1712-0.3322zm3.7738 0.33219c-0.4006 0.18523-0.21181 0.65889-0.06506 0.93794 0.21796 0.55962 0.38531 1.1553 0.30586 1.7521-0.03899 0.50579-0.18983 1.0146-0.47937 1.4525-0.33679 0.40581-0.70358 0.83718-1.2366 1.0358-0.51358 0.28837-1.1439 0.18057-1.6953 0.34061-0.10695-0.000158-0.014151 0.1326-0.03942 0.18679-0.0052 0.23858 0.26365 0.35543 0.4948 0.28048 0.66273-0.03733 1.3258-0.17748 1.888-0.50022 0.60278-0.37559 1.0729-0.92958 1.3658-1.5321 0.225-0.5328 0.322-1.1015 0.372-1.6677 0.028-0.585-0.123-1.1644-0.353-1.7078-0.121-0.2139-0.214-0.5593-0.515-0.598l-0.04338 0.019536zm-3.5355 0.9575c0.4108 0.1103 0.7751 0.4368 0.7807 0.8402 0.1171 0.2426 0.3478 0.5355 0.1168 0.7862-0.2757 0.4698-1.0222 0.4353-1.4152 0.1079-0.108-0.0497-0.1953-0.1202-0.2631-0.2102 0.2516 0.0838 0.1926-0.2394 0.1952-0.3683v-0.35466h-0.49883c0.13817-0.42292 0.5187-0.92739 1.0844-0.80116zm2.3206 1.0747c0.12276 0.50979 0.0975 1.104-0.28195 1.5242v-0.78162c-0.116-0.1173-0.231-0.2346-0.347-0.3518 0.166-0.2028 0.431-0.3125 0.607-0.508l0.02086 0.11275 0.000834 0.00453zm-2.7977 1.3874c0.3273 0.1152 0.6711 0.1713 1.0194 0.1367 0.2891 0.1694 0.5783 0.3388 0.8675 0.5085-0.614 0.14-1.2723 0.233-1.876 0-0.3882-0.1285-0.7343-0.3386-1.0736-0.5475 0.2098-0.1866 0.5972-0.3216 0.8692-0.1973l0.11016 0.056717 0.083323 0.042892z"/>
</svg>
